svg/Outline/mail-unread.svg

<svg viewBox="0 0 24 24" xmlns="http://www.w3.org/2000/svg" width="24" height="24"><path d="M14.78 4q.3 0 .4.03.2.05.28.23c.04.08.07.21.11.48.06.39.1.58.07.68a.4.4 0 0 1-.29.34c-.1.04-.26.04-.59.04H5.98q-1.02.01-1.81.56l7.83 6 5.38-4.12c.15-.12.22-.17.3-.2l.2-.03c.08.01.18.05.39.14l.34.13q.72.22.79.32t.04.25c-.03.1-.2.23-.56.5l-2.97 2.28 3.4 2.5.07.06a.9.9 0 0 1-1.07 1.44l-.07-.05-3.82-2.81-1.87 1.44a.9.9 0 0 1-1.1 0l-1.87-1.44-3.82 2.81a.9.9 0 0 1-1.07-1.45l3.4-2.5-5.06-3.88q-.25.59-.25 1.26l.01 6v.16A3.2 3.2 0 0 0 6 18.2h12a3.2 3.2 0 0 0 3.2-3.04v-.17l-.01-6v-.36c.04-.18.08-.23.22-.33l.31-.14q.15-.05.26-.11c.32-.16.48-.24.6-.22q.16.02.26.14c.08.1.1.23.12.5q.03.25.03.52l.01 6A5 5 0 0 1 18 20H5.74A5 5 0 0 1 1 15.26V15L.98 9a5 5 0 0 1 4.74-5h.26z"/><path d="M20 1a3 3 0 1 1 0 6 3 3 0 0 1 0-6"/></svg>

<svg viewBox="0 0 24 24" xmlns="http://www.w3.org/2000/svg" width="24" height="24"><path d="M14.78 4Q15.08 4 15.18 4.03Q15.38 4.08 15.46 4.26C15.5 4.34 15.53 4.47 15.57 4.74C15.63 5.13 15.67 5.32 15.64 5.42A.4 .4 0 0 1 15.35 5.76C15.25 5.8 15.09 5.8 14.76 5.8L5.98 5.8Q4.96 5.81 4.17 6.36L12 12.36L17.38 8.24C17.53 8.12 17.6 8.07 17.68 8.04L17.88 8.01C17.96 8.02 18.06 8.06 18.27 8.15L18.61 8.28Q19.33 8.5 19.4 8.6Q19.47 8.7 19.44 8.85C19.41 8.95 19.24 9.08 18.88 9.35L15.91 11.63L19.38 14.19A.9 .9 0 0 1 18.31 15.63L14.42 12.77L12.55 14.21A.9 .9 0 0 1 11.45 14.21L9.58 12.77L5.76 15.58A.9 .9 0 0 1 4.69 14.13L8.09 11.63L3.03 7.75Q2.78 8.34 2.78 9.01L2.79 15.17A3.2 3.2 0 0 0 6 18.2L18 18.2A3.2 3.2 0 0 0 21.2 15.16L21.19 8.63C21.23 8.45 21.27 8.4 21.41 8.3L21.72 8.16Q21.87 8.11 21.98 8.05C22.3 7.89 22.46 7.81 22.58 7.83Q22.74 7.85 22.84 7.97C22.92 8.07 22.94 8.2 22.96 8.47Q22.99 8.72 22.99 8.99L23 14.99A5 5 0 0 1 18 20L5.74 20A5 5 0 0 1 1 15.26L.98 9A5 5 0 0 1 5.72 4L5.98 4Z"/><path d="M20 1a3 3 0 1 1 0 6 3 3 0 0 1 0-6"/></svg>
